assets/features/channel/europe-and-america/google.svg

<svg width="80" height="80" viewBox="0 0 80 80" fill="none" xmlns="http://www.w3.org/2000/svg">
<rect x="0.5" y="0.5" width="79" height="79" rx="7.5" fill="white"/>
<rect x="0.5" y="0.5" width="79" height="79" rx="7.5" stroke="#EEEEEE"/>
<path d="M60 40.3497C60 38.8668 59.8665 37.4479 59.6185 36.0835H40.4253V43.9005L51.479 43.9029C51.0307 46.5038 49.5878 48.721 47.3771 50.1991V55.2707H53.9569C57.7988 51.7388 60 46.518 60 40.3497Z" fill="#4285F4"/>
<path d="M47.3796 50.2008C45.548 51.4278 43.1894 52.1456 40.4302 52.1456C35.1001 52.1456 30.5784 48.5782 28.9591 43.7695H22.1719V48.9998C25.5345 55.6277 32.4457 60.1758 40.4302 60.1758C45.9487 60.1758 50.5848 58.3731 53.9594 55.27L47.3796 50.2008Z" fill="#34A853"/>
<path d="M28.3207 39.8896C28.3207 38.5394 28.5472 37.2342 28.9598 36.0071V30.7769H22.1726C20.7822 33.5175 20 36.6112 20 39.8896C20 43.168 20.7846 46.2616 22.1726 49.0023L28.9598 43.772C28.5472 42.545 28.3207 41.2398 28.3207 39.8896Z" fill="#FABB05"/>
<path d="M40.4302 27.6303C43.4422 27.6303 46.1395 28.6607 48.2691 30.6742L54.1001 24.8872C50.5586 21.6112 45.9415 19.6001 40.4302 19.6001C32.4481 19.6001 25.5345 24.1482 22.1719 30.776L28.9591 36.0063C30.5784 31.1977 35.1001 27.6303 40.4302 27.6303Z" fill="#E94235"/>
</svg>

<svg xmlns="http://www.w3.org/2000/svg" width="80" height="80" fill="none" viewBox="0 0 80 80"><rect width="79" height="79" x=".5" y=".5" fill="#fff" rx="7.5"/><rect width="79" height="79" x=".5" y=".5" stroke="#eee" rx="7.5"/><path fill="#4285f4" d="M60 40.35c0-1.483-.133-2.902-.382-4.267H40.426v7.818l11.054.002c-.448 2.6-1.891 4.818-4.102 6.296v5.072h6.58C57.799 51.739 60 46.518 60 40.35"/><path fill="#34a853" d="M47.38 50.2c-1.832 1.228-4.19 1.946-6.95 1.946-5.33 0-9.852-3.568-11.47-8.376h-6.788V49A20.45 20.45 0 0 0 40.43 60.176c5.519 0 10.155-1.803 13.53-4.906z"/><path fill="#fabb05" d="M28.32 39.89c0-1.35.227-2.656.64-3.883v-5.23h-6.787A20.1 20.1 0 0 0 20 39.89c0 3.278.785 6.372 2.173 9.112l6.787-5.23a12.2 12.2 0 0 1-.64-3.882"/><path fill="#e94235" d="M40.43 27.63c3.012 0 5.71 1.03 7.84 3.044l5.83-5.787c-3.54-3.276-8.159-5.287-13.67-5.287a20.45 20.45 0 0 0-18.258 11.176l6.787 5.23c1.62-4.808 6.141-8.376 11.471-8.376"/></svg>
